rospo-icon-theme-classic-common/22x22/apps/goa-account-google.svg

<svg height="22" viewBox="0 0 22 22" width="22" xmlns="http://www.w3.org/2000/svg"><circle cx="11" cy="11.5" opacity=".2" r="10"/><circle cx="11" cy="11" fill="#d2d2d2" r="10"/><path d="m11.148438 4.5c-2.744899 0-5.1881781 1.5808594-6.3769536 3.8808594l1.6503906 1.1171876-1.65625-1.1171876c-.484694.9399996-.765625 1.9991406-.765625 3.1191406 0 1.16.297194 2.250937.8125 3.210938l2.46875-1.738282a4 4 0 0 1 -.28125-1.472656 4 4 0 0 1  .2675781-1.429688 4 4 0 0 1 3.7324219-2.570312 4 4 0 0 1 2.75 1.1015625l2.091797-2.2265625c-1.214286-1.16-2.856625-1.875-4.693359-1.875zm-.148438 5v3h3.865234c-.04238.169994-.09588.337021-.160156.5-.07325.179187-.159416.352821-.257812.519531-.0022.0038-.0037.008-.0059.01172l-.01172.01563c-.09687.16309-.205214.319082-.324219.466797-.122277.151432-.255443.293737-.398438.425781-.0014.0013-.0025.0027-.0039.0039l-.0078.0059c-.135147.123743-.278873.237732-.429687.341797-.0027.0018-.0051.004-.0078.0059a4 4 0 0 1 -2.257802.703044 4 4 0 0 1 -3.7167969-2.525391l-2.4667969 1.736329c1.2040826 2.25 3.6228473 3.789062 6.3320318 3.789062 1.795918 0 3.402145-.674062 4.611328-1.789062 1.382679-1.280039 2.240234-3.145938 2.240234-5.210938-.01216-.653819-.119299-1.331442-.199219-2h-.816406z" opacity=".1"/><path d="m11 1a10 10 0 0 0 -10 10 10 10 0 0 0  .01075.291 10 10 0 0 1 9.98925-9.791 10 10 0 0 1 9.9895 9.709 10 10 0 0 0  .0105-.209 10 10 0 0 0 -10-10z" fill="#fff" opacity=".2"/><path d="m11 9v3h3.865234c-.04238.169994-.09588.337021-.160156.5-.07325.179187-.159416.352821-.257812.519531-.0022.0038-.0037.008-.0059.01172l-.01172.01563c-.09687.16309-.205214.319082-.324219.466797-.122277.151432-.255443.293737-.398438.425781-.0014.0013-.0025.0027-.0039.0039l-.0078.0059c-.13755.125943-.28374.242112-.4375.347656-.0062.0042-.01139.0095-.01758.01367l2.519532 1.900391c1.382679-1.280038 2.240259-3.145976 2.240259-5.210976-.012159-.653819-.119299-1.331442-.199219-2h-.816406z" fill="#3779d7"/><path d="m11.148438 4c-2.7448985 0-5.1891545 1.579883-6.37793 3.879883l2.4980465 1.69043a4 4 0 0 1 3.7314455-2.570313 4 4 0 0 1 2.75 1.1015625l2.091797-2.2265625c-1.214286-1.16-2.856625-1.875-4.693359-1.875z" fill="#e7453c"/><path d="m4.765625 7.879883c-.484694.94-.765625 2.000117-.765625 3.120117 0 1.16.2962175 2.249961.8115235 3.209961l2.4697265-1.738281a4 4 0 0 1 -.28125-1.47168 4 4 0 0 1  .2685545-1.429687l-.8291015-.560547z" fill="#eead33"/><path d="m7.283203 12.47461-2.466797 1.735351c1.2040825 2.25 3.622848 3.790039 6.332032 3.790039 1.795918 0 3.402144-.675039 4.611327-1.790039l-2.49414-1.918945a4 4 0 0 1 -2.265625.708984 4 4 0 0 1 -3.716797-2.52539z" fill="#359950"/></svg>

<svg xmlns="http://www.w3.org/2000/svg" width="22" height="22" version="1.1" viewBox="0 0 22 22">
 <circle style="opacity:0.2" cx="11" cy="11.5" r="10"/>
 <circle style="fill:#d2d2d2" cx="11" cy="11" r="10"/>
 <path style="opacity:0.1" d="M 11.148438,4.5 C 8.403539,4.5 5.9602599,6.0808594 4.7714844,8.3808594 L 6.421875,9.498047 4.765625,8.3808594 C 4.280931,9.320859 4,10.38 4,11.5 c 0,1.16 0.297194,2.250937 0.8125,3.210938 L 7.28125,12.972656 A 4,4 0 0 1 7,11.5 4,4 0 0 1 7.2675781,10.070312 4,4 0 0 1 11,7.5 4,4 0 0 1 13.75,8.6015625 L 15.841797,6.375 C 14.627511,5.215 12.985172,4.5 11.148438,4.5 Z M 11,9.5 l 0,3 3.865234,0 c -0.04238,0.169994 -0.09588,0.337021 -0.160156,0.5 -0.07325,0.179187 -0.159416,0.352821 -0.257812,0.519531 -0.0022,0.0038 -0.0037,0.008 -0.0059,0.01172 l -0.01172,0.01563 c -0.09687,0.16309 -0.205214,0.319082 -0.324219,0.466797 -0.122277,0.151432 -0.255443,0.293737 -0.398438,0.425781 -0.0014,0.0013 -0.0025,0.0027 -0.0039,0.0039 l -0.0078,0.0059 c -0.135147,0.123743 -0.278873,0.237732 -0.429687,0.341797 -0.0027,0.0018 -0.0051,0.004 -0.0078,0.0059 A 4,4 0 0 1 11,15.5 4,4 0 0 1 7.2832031,12.974609 L 4.8164062,14.710938 C 6.0204888,16.960938 8.4392535,18.5 11.148438,18.5 c 1.795918,0 3.402145,-0.674062 4.611328,-1.789062 C 17.142445,15.430899 18,13.565 18,11.5 17.98784,10.846181 17.880701,10.168558 17.800781,9.5 L 16.984375,9.5 11,9.5 Z"/>
 <path style="opacity:0.2;fill:#ffffff" d="M 11,1 A 10,10 0 0 0 1,11 10,10 0 0 0 1.01075,11.291 10,10 0 0 1 11,1.5 10,10 0 0 1 20.9895,11.209 10,10 0 0 0 21,11 10,10 0 0 0 11,1 Z"/>
 <path style="fill:#3779d7" d="m 11,9 0,3 3.865234,0 c -0.04238,0.169994 -0.09588,0.337021 -0.160156,0.5 -0.07325,0.179187 -0.159416,0.352821 -0.257812,0.519531 -0.0022,0.0038 -0.0037,0.008 -0.0059,0.01172 l -0.01172,0.01563 c -0.09687,0.16309 -0.205214,0.319082 -0.324219,0.466797 -0.122277,0.151432 -0.255443,0.293737 -0.398438,0.425781 -0.0014,0.0013 -0.0025,0.0027 -0.0039,0.0039 l -0.0078,0.0059 c -0.13755,0.125943 -0.28374,0.242112 -0.4375,0.347656 -0.0062,0.0042 -0.01139,0.0095 -0.01758,0.01367 l 2.519532,1.900391 C 17.14242,14.930938 18,13.065 18,11 17.987841,10.346181 17.880701,9.668558 17.800781,9 l -0.816406,0 z"/>
 <path style="fill:#e7453c" d="M 11.148438,4 C 8.4035395,4 5.9592835,5.579883 4.770508,7.879883 l 2.4980465,1.69043 A 4,4 0 0 1 11,7 4,4 0 0 1 13.75,8.1015625 L 15.841797,5.875 C 14.627511,4.715 12.985172,4 11.148438,4 Z"/>
 <path style="fill:#eead33" d="M 4.765625,7.879883 C 4.280931,8.819883 4,9.88 4,11 c 0,1.16 0.2962175,2.249961 0.8115235,3.209961 L 7.28125,12.47168 A 4,4 0 0 1 7,11 4,4 0 0 1 7.2685545,9.570313 L 6.439453,9.009766 4.765625,7.879883 Z"/>
 <path style="fill:#359950" d="M 7.283203,12.47461 4.816406,14.209961 C 6.0204885,16.459961 8.439254,18 11.148438,18 c 1.795918,0 3.402144,-0.675039 4.611327,-1.790039 l -2.49414,-1.918945 A 4,4 0 0 1 11,15 4,4 0 0 1 7.283203,12.47461 Z"/>
</svg>
